public/assets/calender.svg

<svg width="97" height="97" viewBox="0 0 97 97" fill="none" xmlns="http://www.w3.org/2000/svg">
<path d="M76.7917 16.1667H72.75V8.08333H64.6667V16.1667H32.3333V8.08333H24.25V16.1667H20.2083C15.7221 16.1667 12.1654 19.8042 12.1654 24.25L12.125 80.8333C12.125 82.9772 12.9766 85.0332 14.4926 86.5491C16.0085 88.065 18.0645 88.9167 20.2083 88.9167H76.7917C81.2375 88.9167 84.875 85.2792 84.875 80.8333V24.25C84.875 19.8042 81.2375 16.1667 76.7917 16.1667ZM76.7917 80.8333H20.2083V40.4167H76.7917V80.8333ZM76.7917 32.3333H20.2083V24.25H76.7917V32.3333ZM36.375 56.5833H28.2917V48.5H36.375V56.5833ZM52.5417 56.5833H44.4583V48.5H52.5417V56.5833ZM68.7083 56.5833H60.625V48.5H68.7083V56.5833ZM36.375 72.75H28.2917V64.6667H36.375V72.75ZM52.5417 72.75H44.4583V64.6667H52.5417V72.75ZM68.7083 72.75H60.625V64.6667H68.7083V72.75Z" fill="url(#paint0_linear_30_292)"/>
<defs>
<linearGradient id="paint0_linear_30_292" x1="48.5" y1="8.08333" x2="48.5" y2="88.9167" gradientUnits="userSpaceOnUse">
<stop stop-color="#28C985"/>
<stop offset="1" stop-color="#18808A"/>
</linearGradient>
</defs>
</svg>

<svg width="97" height="97" fill="none" xmlns="http://www.w3.org/2000/svg"><path d="M76.792 16.167H72.75V8.083h-8.083v8.084H32.333V8.083H24.25v8.084h-4.042c-4.486 0-8.043 3.637-8.043 8.083l-.04 56.583a8.083 8.083 0 0 0 8.083 8.084h56.584c4.445 0 8.083-3.638 8.083-8.084V24.25c0-4.446-3.638-8.083-8.083-8.083zm0 64.666H20.208V40.417h56.584v40.416zm0-48.5H20.208V24.25h56.584v8.083zm-40.417 24.25h-8.083V48.5h8.083v8.083zm16.167 0h-8.084V48.5h8.084v8.083zm16.166 0h-8.083V48.5h8.083v8.083zM36.375 72.75h-8.083v-8.083h8.083v8.083zm16.167 0h-8.084v-8.083h8.084v8.083zm16.166 0h-8.083v-8.083h8.083v8.083z" fill="url(#a)"/><defs><linearGradient id="a" x1="48.5" y1="8.083" x2="48.5" y2="88.917" gradientUnits="userSpaceOnUse"><stop stop-color="#28C985"/><stop offset="1" stop-color="#18808A"/></linearGradient></defs></svg>
